icons/folders-line.svg

<svg xmlns="http://www.w3.org/2000/svg" width="24" height="24" fill="none"><g clip-path="url(#a)"><g><path fill="#121212" d="M6 7V4C6 3.73478 6.10536 3.48043 6.29289 3.29289C6.48043 3.10536 6.73478 3 7 3H13.414L15.414 5H21C21.2652 5 21.5196 5.10536 21.7071 5.29289C21.8946 5.48043 22 5.73478 22 6V16C22 16.2652 21.8946 16.5196 21.7071 16.7071C21.5196 16.8946 21.2652 17 21 17H18V20C18 20.2652 17.8946 20.5196 17.7071 20.7071C17.5196 20.8946 17.2652 21 17 21H3C2.73478 21 2.48043 20.8946 2.29289 20.7071C2.10536 20.5196 2 20.2652 2 20V8C2 7.73478 2.10536 7.48043 2.29289 7.29289C2.48043 7.10536 2.73478 7 3 7H6ZM6 9H4V19H16V17H6V9ZM8 5V15H20V7H14.586L12.586 5H8Z"/></g></g><defs><clipPath id="a"><rect width="24" height="24" fill="white"/></clipPath></defs></svg>

<svg width="24" height="24" fill="none" xmlns="http://www.w3.org/2000/svg"><g clip-path="url(#a)"><path d="M6 7V4a1 1 0 0 1 1-1h6.414l2 2H21a1 1 0 0 1 1 1v10a1 1 0 0 1-1 1h-3v3a1 1 0 0 1-1 1H3a1 1 0 0 1-1-1V8a1 1 0 0 1 1-1h3Zm0 2H4v10h12v-2H6V9Zm2-4v10h12V7h-5.414l-2-2H8Z" /></g><defs><clipPath id="a"><path fill="#fff" d="M0 0h24v24H0z"/></clipPath></defs></svg>
